flag-outline.svg

<svg  viewBox="0 0 24 24" fill="currentColor"><path  d="M12.36,6L12.76,8H18V14H14.64L14.24,12H7V6H12.36M14,4H5V21H7V14H12.6L13,16H20V6H14.4"/></svg>

<svg fill="currentColor" viewBox="0 0 24 24"><path d="m12.36 6 .4 2H18v6h-3.36l-.4-2H7V6zM14 4H5v17h2v-7h5.6l.4 2h7V6h-5.6"/></svg>
